assets/flagsAndGeo/svg/ken.svg

<?xml version="1.0" encoding="UTF-8"?>
<svg xmlns="http://www.w3.org/2000/svg" xmlns:xlink="http://www.w3.org/1999/xlink" width="900" height="600" viewBox="-120 -80 240 160">
    <defs>
        <path id="ken_a" d="M-1 55.426h2V-38c2-2 2-5 2-8 0-2 0-10-3-18.663C-3-56-3-48-3-46c0 3 0 6 2 8z" stroke-miterlimit="10" transform="rotate(30)"/>
    </defs>
    <path fill="#fff" d="M-120-80h240V80h-240z"/>
    <path d="M-120-80h240v48h-240z"/>
    <path fill="#060" d="M-120 32h240v48h-240z"/>
    <g id="ken_b">
        <use xlink:href="#ken_a" stroke="#000"/>
        <use xlink:href="#ken_a" fill="#fff"/>
    </g>
    <use xlink:href="#ken_b" transform="scale(-1 1)"/>
    <path fill="#b00" d="M-120-24v48h101c3 8 13 24 19 24s16-16 19-24h101v-48H19C16-32 6-48 0-48s-16 16-19 24z"/>
    <path id="ken_c" d="M19 24c3-8 5-16 5-24s-2-16-5-24c-3 8-5 16-5 24s2 16 5 24"/>
    <use xlink:href="#ken_c" transform="scale(-1 1)"/>
    <g fill="#fff">
        <ellipse rx="4" ry="6"/>
        <path id="ken_d" d="M1 5.85s4 8 4 21-4 21-4 21z"/>
        <use xlink:href="#ken_d" transform="scale(-1)"/>
        <use xlink:href="#ken_d" transform="scale(-1 1)"/>
        <use xlink:href="#ken_d" transform="scale(1 -1)"/>
    </g>
</svg>

<?xml version="1.0" encoding="UTF-8"?>
<!DOCTYPE svg>
<svg width="900" height="600" viewBox="-120 -80 240 160" xmlns="http://www.w3.org/2000/svg" xmlns:xlink="http://www.w3.org/1999/xlink">
   <defs>
      <path id="spearshape" d="M -1,55.4256258422040733928782829281879157421699 h 2 V -38 C 3,-40 3,-43 3,-46 C 3,-48 3,-56 0,-64.6632301492380856250246634162192350325315 C -3,-56 -3,-48 -3,-46 C -3,-43 -3,-40 -1,-38 z" stroke-miterlimit="10" transform="rotate(30)"/><!-- 32*sqrt(3), -112/sqrt(3)-->
   </defs>
   <rect x="-120" y="-80" width="240" height="160" fill="#fff"/>
   <rect x="-120" y="-80" width="240" height="48"/>
   <rect x="-120" y="32" width="240" height="48" fill="#060"/>
   <g id="spear">
      <use xlink:href="#spearshape" stroke="#000"/>
      <use xlink:href="#spearshape" fill="#fff"/>
   </g>
   <use xlink:href="#spear" transform="scale(-1,1)"/>
   <path fill="#b00" d="M -120,-24 V 24 H -19 c 3,8 13,24 19,24 s 16,-16 19,-24 H 120 V -24 H 19 c -3,-8 -13,-24 -19,-24 s -16,16 -19,24 z"/>
   <path id="deco_r" d="M 19,24 c 3,-8 5,-16 5,-24 s -2,-16 -5,-24 c -3,8 -5,16 -5,24 s 2,16 5,24"/>
   <use xlink:href="#deco_r" transform="scale(-1,1)"/>
   <g fill="#fff">
      <ellipse rx="4" ry="6"/>
      <path id="deco_br" d="M 1,5.85 c 0,0 4,8 4,21 s -4,21 -4,21 z"/>
      <use xlink:href="#deco_br" transform="scale(-1)"/>
      <use xlink:href="#deco_br" transform="scale(-1,1)"/>
      <use xlink:href="#deco_br" transform="scale(1,-1)"/>
   </g>
</svg>
